assets/icons/audio.svg

<svg width="29" height="24" viewBox="0 0 29 24" fill="none" xmlns="http://www.w3.org/2000/svg">
<path fill-rule="evenodd" clip-rule="evenodd" d="M6.01993 6.6245L14.6678 0.176757C15.2179 -0.251055 16.043 0.146199 16.043 0.849033V22.2091C16.043 22.9425 15.2484 23.3397 14.6678 22.9119L6.01993 16.4336H0.855624C0.397254 16.4336 0 16.0669 0 15.578V7.48012C0 7.02175 0.366696 6.6245 0.855624 6.6245H6.01993ZM24.7214 1.94914C24.1408 1.42966 23.224 1.46021 22.7046 2.07137C22.1851 2.65198 22.2156 3.56872 22.8268 4.0882C24.9353 5.9828 26.1576 8.70246 26.1576 11.5444C26.1576 14.3862 24.9353 17.1059 22.8268 19.0005C22.2462 19.52 22.1851 20.4367 22.7046 21.0173C22.9796 21.3229 23.3768 21.5063 23.7741 21.5063C24.1102 21.5063 24.4464 21.384 24.7214 21.1396C27.441 18.6949 28.9995 15.2113 28.9995 11.5444C29.0301 7.87739 27.4716 4.39378 24.7214 1.94914ZM21.4517 6.04389C20.8711 5.49385 19.9849 5.52441 19.4349 6.07445C18.8848 6.65505 18.9154 7.54124 19.4654 8.09128C20.4127 9.00802 20.9322 10.1998 20.9322 11.5138C20.9322 12.8278 20.4127 14.0195 19.4654 14.9363C18.8848 15.4863 18.8848 16.4031 19.4349 16.9531C19.7099 17.2587 20.1072 17.3809 20.4739 17.3809C20.8406 17.3809 21.1767 17.2587 21.4823 16.9837C22.9796 15.5474 23.8047 13.5917 23.8047 11.4832C23.7741 9.46639 22.9491 7.51068 21.4517 6.04389Z" fill="black"/>
</svg>

<svg xmlns="http://www.w3.org/2000/svg" width="29" height="24" fill="none" xmlns:v="https://vecta.io/nano"><path fill-rule="evenodd" d="M6.02 6.625L14.668.177a.86.86 0 0 1 1.375.672v21.36c0 .733-.795 1.13-1.375.703L6.02 16.434H.856c-.458 0-.856-.367-.856-.856V7.48c0-.458.367-.856.856-.856H6.02zm18.7-4.675c-.58-.52-1.497-.49-2.017.122-.52.58-.49 1.497.122 2.017a10.05 10.05 0 0 1 3.331 7.456 10.05 10.05 0 0 1-3.331 7.456c-.58.52-.642 1.436-.122 2.017.275.306.672.49 1.07.49.336 0 .672-.122.947-.367A12.9 12.9 0 0 0 29 11.544c.03-3.667-1.528-7.15-4.278-9.595zm-3.27 4.095a1.44 1.44 0 0 0-2.017.031 1.44 1.44 0 0 0 .03 2.017 4.69 4.69 0 0 1 1.467 3.423 4.69 4.69 0 0 1-1.467 3.422 1.41 1.41 0 0 0-.03 2.017c.275.306.672.428 1.04.428s.703-.122 1.008-.397c1.497-1.436 2.322-3.392 2.322-5.5-.03-2.017-.856-3.973-2.353-5.44z" fill="#000"/></svg>
